X: 1
T: The Hag At The Churn
R: jig
M: 6/8
L: 1/8
K: Dmix
|:A2G ADD|A2G Adc|A2G ADD|EFG EFG:|
|AdB c3|Add efg|AdB c2A|GEG AED|
AdB c3|Add efg|age dcA|GEG AED||


Tune 829	Setting 25991

